_icons/SVG/552-krokorok.svg

<svg xmlns="http://www.w3.org/2000/svg" viewBox="0 0 32 32"><title>552-krokorok</title><path d="M12.50634,28.47905c0-1.97518-.39768-4.03822-2.31813-3.5764a1.848,1.848,0,0,0-1.87614.46558A5.44,5.44,0,0,0,9.57771,26.497a1.66952,1.66952,0,0,0-.65564,1.20468,1.80724,1.80724,0,0,1-1.0886-.15956,3.57937,3.57937,0,0,0,2.16671,2.62949h2.56045C12.54239,29.72428,12.50634,29.17067,12.50634,28.47905Z" style="fill:#cfab81"/><path d="M8.92207,27.70168A1.66952,1.66952,0,0,1,9.57771,26.497a5.44,5.44,0,0,1-1.26564-1.12877,2.49324,2.49324,0,0,0-.4786,2.17389A1.80724,1.80724,0,0,0,8.92207,27.70168Z" style="fill:#5c6664"/><path d="M12.56063,30.17161H10.00018c-.28663.68126,1.02624.97125,2.41844,1.24186A2.43189,2.43189,0,0,0,12.56063,30.17161Z" style="fill:#5c6664"/><path d="M6.86666,31.99658c.72785,0,1.36347.00292,1.91937.00337l-.78983-.80763C7.14166,31.31958,5.2062,31.71675,6.86666,31.99658Z" style="fill:#edeeee"/><path d="M12.41862,31.41347c-1.3922-.27061-2.70507-.5606-2.41844-1.24186l-.42247-.087c-.78666-.10495-1.48387.17793-1.58151,1.10774L8.786,32C11.21382,32.00179,12.11019,31.95615,12.41862,31.41347Z" style="fill:#cfab81"/><path d="M13.2642,16.35887l.32871-1.46429L12.9566,13.2462l-.08194,1.82059A18.19751,18.19751,0,0,0,9.95676,17.093l.9342,1.07156A8.96957,8.96957,0,0,1,13.2642,16.35887Z" style="fill:#d5b387"/><path d="M8.26566,22.57836l.40665-.707c.0293-.08136.06738-.152.098-.2317l-.569-.25059Z" style="fill:#edeeee"/><polygon points="7.554 22.253 8.201 21.389 7.495 21.389 7.554 22.253" style="fill:#edeeee"/><path d="M8.6123,18.445a9.30721,9.30721,0,0,0-1.41178,2.219l-.098.33507.39234.39005h.70649l.569.25059A11.55351,11.55351,0,0,1,9.7754,19.60808Z" style="fill:#d5b387"/><polygon points="6.847 21.871 7.495 21.389 7.102 20.999 6.847 21.871" style="fill:#edeeee"/><path d="M8.6123,18.445l1.1631,1.1631a9.46661,9.46661,0,0,1,1.11556-1.4435L9.95676,17.093A12.20628,12.20628,0,0,0,8.6123,18.445Z" style="fill:#5c6664"/><path d="M12.9566,14.13037c-.17946,3.68128-2.00049,7.34279-3.53915,11.00774,2.31356,4.26814,3.81732,4.47416,6.59568,4.47416V14.70115Z" style="fill:#e2959e"/><path d="M12.84815,14.99305c0,.65539,1.54336.996,3.165,1.02974V2.31653C13.80485-6.05473-1.30328,11.00944,12.84815,14.99305Z" style="fill:#dbba8c"/><path d="M9.65907,4.3097c-1.27561,4.22549,2.8303,6.69974,4.58427,4.46469h1.76979V5.107Z" style="fill:#373f3f"/><ellipse cx="12.60797" cy="6.86095" rx="0.87699" ry="1.5148" style="fill:#b9bfbe"/><circle cx="12.50636" cy="6.14277" r="0.45025" style="fill:#edeeee"/><path d="M12.9566,11.00944c0-.21448,1.52855-.32178,3.05653-.32165v-1.073C14.48515,9.61444,12.9566,10.07938,12.9566,11.00944Z" style="fill:#757f7e"/><ellipse cx="13.59289" cy="12.38783" rx="2.42024" ry="1.74254" style="fill:#e0c193"/><ellipse cx="13.59289" cy="12.38783" rx="0.38425" ry="0.67767" transform="translate(-4.37282 8.4561) rotate(-30)" style="fill:#373f3f"/><path d="M12.35181,17.58427c-.16922.60955-.35986,1.21891-.57758,1.8279a42.1798,42.1798,0,0,0,4.2389.18975V17.6896C14.68068,17.686,13.36457,17.65146,12.35181,17.58427Z" style="fill:#687271"/><path d="M11.01065,21.38906c-.36163.87928-.74082,1.75836-1.11885,2.6375,1.48132.11589,3.81242.17163,6.12133.16858V21.48677C14.22408,21.48925,12.42224,21.45721,11.01065,21.38906Z" style="fill:#687271"/><path d="M10.00018,26.1482c1.99927,3.28189,3.47532,3.46407,6.013,3.46407V26.74072A26.85423,26.85423,0,0,1,10.00018,26.1482Z" style="fill:#687271"/><path d="M19.49366,28.48434c0-1.97519.39768-4.03822,2.31813-3.5764a1.84807,1.84807,0,0,1,1.87614.46557,5.43982,5.43982,0,0,1-1.26564,1.12878,1.66952,1.66952,0,0,1,.65564,1.20467,1.80716,1.80716,0,0,0,1.0886-.15955,3.57939,3.57939,0,0,1-2.16671,2.62949H19.43937C19.45761,29.72957,19.49366,29.176,19.49366,28.48434Z" style="fill:#cda073"/><path d="M23.07793,27.707a1.66952,1.66952,0,0,0-.65564-1.20467,5.43982,5.43982,0,0,0,1.26564-1.12878,2.49327,2.49327,0,0,1,.4786,2.1739A1.80716,1.80716,0,0,1,23.07793,27.707Z" style="fill:#505957"/><path d="M19.43937,30.1769h2.56045c.28663.68125-1.02624.97125-2.41844,1.24186A2.43191,2.43191,0,0,1,19.43937,30.1769Z" style="fill:#505957"/><path d="M25.13334,32.00187c-.72785,0-1.36347.00292-1.91937.00337l.78983-.80763C24.85834,31.32487,26.7938,31.722,25.13334,32.00187Z" style="fill:#e3e5e5"/><path d="M19.58138,31.41876c1.3922-.27061,2.70507-.56061,2.41844-1.24186l.42247-.087c.78666-.105,1.48387.17793,1.58151,1.10774l-.78983.80763C20.78618,32.00708,19.88981,31.96144,19.58138,31.41876Z" style="fill:#cda073"/><path d="M18.7358,16.36416l-.32871-1.46429.63631-1.64838.08194,1.82059a18.1975,18.1975,0,0,1,2.9179,2.02622l-.9342,1.07157A8.96936,8.96936,0,0,0,18.7358,16.36416Z" style="fill:#cfab81"/><path d="M23.73434,22.58364l-.40665-.707c-.0293-.08137-.06738-.152-.098-.2317l.569-.25059Z" style="fill:#e3e5e5"/><polygon points="24.446 22.259 23.799 21.394 24.505 21.394 24.446 22.259" style="fill:#e3e5e5"/><path d="M23.3877,18.45027a9.307,9.307,0,0,1,1.41178,2.219l.098.33507-.39234.39h-.70649l-.569.25059a11.55351,11.55351,0,0,0-1.00507-2.03157Z" style="fill:#cfab81"/><polygon points="25.153 21.877 24.505 21.394 24.898 21.004 25.153 21.877" style="fill:#e3e5e5"/><path d="M23.3877,18.45027l-1.1631,1.1631a9.46612,9.46612,0,0,0-1.11556-1.4435l.9342-1.07157A12.20548,12.20548,0,0,1,23.3877,18.45027Z" style="fill:#505957"/><path d="M19.0434,14.13566c.17946,3.68128,2.00049,7.34279,3.53915,11.00774-2.31356,4.26814-3.81732,4.47416-6.59568,4.47416V14.70643Z" style="fill:#e08c96"/><path d="M19.15185,14.99834c0,.65538-1.54336.996-3.165,1.02973V2.32181C18.19515-6.04945,33.30328,11.01473,19.15185,14.99834Z" style="fill:#d5b387"/><path d="M22.34093,4.315c1.27561,4.22548-2.8303,6.69974-4.58427,4.46469H15.98687V5.11225Z" style="fill:#2b3332"/><ellipse cx="19.39203" cy="6.86624" rx="0.87699" ry="1.5148" style="fill:#abb2b1"/><circle cx="19.49364" cy="6.14806" r="0.45025" style="fill:#e3e5e5"/><path d="M19.0434,11.01473c0-.21448-1.52855-.32178-3.05653-.32166v-1.073C17.51485,9.61973,19.0434,10.08466,19.0434,11.01473Z" style="fill:#687271"/><ellipse cx="18.40711" cy="12.39312" rx="2.42024" ry="1.74254" style="fill:#dbba8c"/><ellipse cx="18.40711" cy="12.39312" rx="0.67767" ry="0.38425" transform="translate(-1.5292 22.13759) rotate(-60)" style="fill:#2b3332"/><path d="M19.64819,17.58956c.16922.60955.35986,1.21891.57758,1.82789a42.17682,42.17682,0,0,1-4.2389.18975V17.69489C17.31932,17.69133,18.63543,17.65675,19.64819,17.58956Z" style="fill:#5c6664"/><path d="M20.98935,21.39435c.36163.87927.74082,1.75835,1.11885,2.6375-1.48132.11588-3.81242.17163-6.12133.16858V21.49206C17.77592,21.49453,19.57776,21.4625,20.98935,21.39435Z" style="fill:#5c6664"/><path d="M21.99982,26.15349c-1.99927,3.28189-3.47532,3.46407-6.01295,3.46407V26.746A26.85423,26.85423,0,0,0,21.99982,26.15349Z" style="fill:#5c6664"/></svg>

<svg xmlns="http://www.w3.org/2000/svg" viewBox="0 0 32 32"><path d="M12.506 28.48c0-1.976-.397-4.04-2.318-3.577a1.848 1.848 0 00-1.876.465 5.44 5.44 0 001.266 1.129 1.67 1.67 0 00-.656 1.205 1.807 1.807 0 01-1.089-.16A3.58 3.58 0 0010 30.172h2.56c-.018-.448-.054-1.001-.054-1.693z" fill="#cfab81"/><path d="M8.922 27.702a1.67 1.67 0 01.656-1.205 5.44 5.44 0 01-1.266-1.129 2.493 2.493 0 00-.479 2.174 1.807 1.807 0 001.09.16zm3.638 2.47H10c-.286.68 1.026.97 2.419 1.241a2.432 2.432 0 00.142-1.241z" fill="#5c6664"/><path d="M6.867 31.997c.728 0 1.363.003 1.919.003l-.79-.808c-.854.128-2.79.525-1.13.805z" fill="#edeeee"/><path d="M12.419 31.413c-1.393-.27-2.705-.56-2.419-1.241l-.422-.087c-.787-.105-1.484.178-1.582 1.107l.79.808c2.428.002 3.324-.044 3.633-.587z" fill="#cfab81"/><path d="M13.264 16.359l.329-1.464-.636-1.649-.082 1.82a18.198 18.198 0 00-2.918 2.027l.934 1.072a8.97 8.97 0 012.373-1.806z" fill="#d5b387"/><path d="M8.266 22.578l.406-.707c.03-.081.068-.152.098-.231l-.569-.25zm-.712-.325l.647-.864h-.706l.059.864z" fill="#edeeee"/><path d="M8.612 18.445a9.307 9.307 0 00-1.411 2.219l-.098.335.392.39H8.2l.57.25a11.554 11.554 0 011.004-2.03z" fill="#d5b387"/><path fill="#edeeee" d="M6.847 21.871l.648-.482-.393-.39-.255.872z"/><path d="M8.612 18.445l1.163 1.163a9.467 9.467 0 011.116-1.443l-.934-1.072a12.206 12.206 0 00-1.345 1.352z" fill="#5c6664"/><path d="M12.957 14.13c-.18 3.682-2 7.343-3.54 11.008 2.314 4.268 3.818 4.474 6.596 4.474v-14.91z" fill="#e2959e"/><path d="M12.848 14.993c0 .655 1.544.996 3.165 1.03V2.317c-2.208-8.372-17.316 8.692-3.165 12.676z" fill="#dbba8c"/><path d="M9.66 4.31c-1.277 4.225 2.83 6.7 4.583 4.464h1.77V5.107z" fill="#373f3f"/><ellipse cx="12.608" cy="6.861" rx=".877" ry="1.515" fill="#b9bfbe"/><circle cx="12.506" cy="6.143" r=".45" fill="#edeeee"/><path d="M12.957 11.01c0-.215 1.528-.322 3.056-.322V9.615c-1.528 0-3.056.464-3.056 1.394z" fill="#757f7e"/><ellipse cx="13.593" cy="12.388" rx="2.42" ry="1.743" fill="#e0c193"/><ellipse cx="13.593" cy="12.388" rx=".384" ry=".678" transform="rotate(-30 13.593 12.388)" fill="#373f3f"/><path d="M12.352 17.584c-.17.61-.36 1.22-.578 1.828a42.18 42.18 0 004.24.19V17.69a61.22 61.22 0 01-3.662-.106zM11.01 21.39c-.361.878-.74 1.757-1.118 2.637 1.481.115 3.812.171 6.121.168v-2.708c-1.789.002-3.59-.03-5.002-.098zM10 26.148c2 3.282 3.476 3.464 6.013 3.464v-2.871A26.854 26.854 0 0110 26.148z" fill="#687271"/><path d="M19.494 28.484c0-1.975.397-4.038 2.318-3.576a1.848 1.848 0 011.876.466 5.44 5.44 0 01-1.266 1.128 1.67 1.67 0 01.656 1.205 1.807 1.807 0 001.089-.16A3.58 3.58 0 0122 30.177h-2.56c.018-.447.054-1.001.054-1.693z" fill="#cda073"/><path d="M23.078 27.707a1.67 1.67 0 00-.656-1.205 5.44 5.44 0 001.266-1.128 2.493 2.493 0 01.479 2.173 1.807 1.807 0 01-1.09.16zm-3.638 2.47H22c.286.681-1.026.971-2.419 1.242a2.432 2.432 0 01-.142-1.242z" fill="#505957"/><path d="M25.133 32.002c-.728 0-1.363.003-1.919.003l.79-.807c.854.127 2.79.524 1.13.804z" fill="#e3e5e5"/><path d="M19.581 31.419c1.393-.27 2.705-.56 2.419-1.242l.422-.087c.787-.105 1.484.178 1.582 1.108l-.79.807c-2.428.002-3.324-.044-3.633-.586z" fill="#cda073"/><path d="M18.736 16.364l-.329-1.464.636-1.649.082 1.821a18.198 18.198 0 012.918 2.026l-.934 1.072a8.97 8.97 0 00-2.373-1.806z" fill="#cfab81"/><path d="M23.734 22.584l-.406-.707c-.03-.082-.068-.152-.098-.232l.569-.25zm.712-.325l-.647-.865h.706l-.059.865z" fill="#e3e5e5"/><path d="M23.388 18.45a9.307 9.307 0 011.411 2.22l.098.334-.392.39H23.8l-.57.25a11.554 11.554 0 00-1.004-2.03z" fill="#cfab81"/><path fill="#e3e5e5" d="M25.153 21.877l-.648-.483.393-.39.255.873z"/><path d="M23.388 18.45l-1.163 1.163a9.466 9.466 0 00-1.116-1.443l.934-1.072a12.205 12.205 0 011.345 1.352z" fill="#505957"/><path d="M19.043 14.136c.18 3.68 2 7.342 3.54 11.007-2.314 4.269-3.818 4.475-6.596 4.475V14.706z" fill="#e08c96"/><path d="M19.152 14.998c0 .656-1.544.996-3.165 1.03V2.322c2.208-8.371 17.316 8.693 3.165 12.676z" fill="#d5b387"/><path d="M22.34 4.315c1.277 4.225-2.83 6.7-4.583 4.465h-1.77V5.112z" fill="#2b3332"/><ellipse cx="19.392" cy="6.866" rx=".877" ry="1.515" fill="#abb2b1"/><circle cx="19.494" cy="6.148" r=".45" fill="#e3e5e5"/><path d="M19.043 11.015c0-.215-1.528-.322-3.056-.322V9.62c1.528 0 3.056.465 3.056 1.395z" fill="#687271"/><ellipse cx="18.407" cy="12.393" rx="2.42" ry="1.743" fill="#dbba8c"/><ellipse cx="18.407" cy="12.393" rx=".678" ry=".384" transform="rotate(-60 18.407 12.393)" fill="#2b3332"/><path d="M19.648 17.59c.17.61.36 1.218.578 1.827a42.177 42.177 0 01-4.24.19v-1.912a61.187 61.187 0 003.662-.105zm1.342 3.804c.361.88.74 1.759 1.118 2.638-1.481.116-3.812.171-6.121.168v-2.708c1.789.003 3.59-.03 5.002-.098zM22 26.153c-2 3.282-3.476 3.465-6.013 3.465v-2.872A26.854 26.854 0 0022 26.153z" fill="#5c6664"/></svg>
